X:652
T: ES SANGEN DREI ENGEL
N: E2032A
O: Europa, Mitteleuropa, Deutschland, Hessen, Marburg
R: geistlich, Wallfahrts - Lied
M: 3/4
L: 1/8
K: F
FA | c3dcB | A3GAc | B2B2A2 | G4
AG | F2F2G2 | A2A2Bd | c3BGA | F4

